packages/kaspersky-hexa-ui-icons/src/iconsSVGs/16x12/FlagPg.svg

<svg width="16" height="12" viewBox="0 0 16 12" fill="none" xmlns="http://www.w3.org/2000/svg">
<g clip-path="url(#clip0_41818_3485)">
<rect width="16" height="12" rx="2" fill="white"/>
<mask id="mask0_41818_3485" style="mask-type:luminance" maskUnits="userSpaceOnUse" x="0" y="0" width="16" height="12">
<rect width="16" height="12" rx="2" fill="white"/>
</mask>
<g mask="url(#mask0_41818_3485)">
<rect width="16" height="12" fill="#262626"/>
<path fill-rule="evenodd" clip-rule="evenodd" d="M0 0H16V12L0 0Z" fill="#E8283F"/>
<path fill-rule="evenodd" clip-rule="evenodd" d="M3.80951 10L3.27076 10.1657L3.42856 9.6L3.27076 9.03431L3.80951 9.2L4.34826 9.03431L4.19046 9.6L4.34826 10.1657L3.80951 10Z" fill="white"/>
<path fill-rule="evenodd" clip-rule="evenodd" d="M3.80951 5.2L3.27076 5.36569L3.42856 4.8L3.27076 4.23431L3.80951 4.4L4.34826 4.23431L4.19046 4.8L4.34826 5.36569L3.80951 5.2Z" fill="white"/>
<path fill-rule="evenodd" clip-rule="evenodd" d="M1.90473 7.2L1.36598 7.36569L1.52377 6.8L1.36598 6.23431L1.90473 6.4L2.44348 6.23431L2.28568 6.8L2.44348 7.36569L1.90473 7.2Z" fill="white"/>
<path fill-rule="evenodd" clip-rule="evenodd" d="M5.33332 6.8L4.79457 6.96569L4.95236 6.4L4.79457 5.83431L5.33332 6L5.87206 5.83431L5.71427 6.4L5.87206 6.96569L5.33332 6.8Z" fill="white"/>
<path fill-rule="evenodd" clip-rule="evenodd" d="M10.7779 5.55934C10.6867 5.50188 10.6127 5.36652 10.6127 5.25822L10.6127 4.52099C10.6127 4.41215 10.5381 4.35003 10.4253 4.38952L9.99203 4.54117C9.88852 4.5774 9.73002 4.58066 9.61717 4.54117L9.18391 4.38952C9.0804 4.35329 9.06889 4.2783 9.16163 4.21988L10.1782 3.57944C10.2694 3.52198 10.3185 3.39709 10.2809 3.27859L10.1365 2.82367C10.1019 2.71498 10.1486 2.65297 10.2614 2.69247L10.6947 2.84411C10.7982 2.88034 10.9255 2.83368 10.9812 2.7363L11.5911 1.66891C11.6459 1.57313 11.7151 1.5738 11.7527 1.6923L11.8971 2.14722C11.9316 2.25591 11.9347 2.42233 11.8971 2.54083L11.7527 2.99575C11.7182 3.10444 11.7748 3.19255 11.8779 3.19255H12.58C12.6837 3.19255 12.8112 3.26859 12.8668 3.36596L13.4767 4.43336C13.5315 4.52913 13.4875 4.62532 13.3886 4.64609L12.4162 4.85028C12.3128 4.872 12.2113 4.9824 12.1915 5.08625L11.9971 6.10718C11.9764 6.21578 11.8872 6.2582 11.7944 6.19978L10.7779 5.55934Z" fill="#FFD84E"/>
</g>
</g>
<defs>
<clipPath id="clip0_41818_3485">
<rect width="16" height="12" fill="white"/>
</clipPath>
</defs>
</svg>

<svg xmlns="http://www.w3.org/2000/svg" width="16" height="12" fill="none" viewBox="0 0 16 12"><g clip-path="url(#a)"><rect width="16" height="12" fill="#fff" rx="2"/><mask id="b" width="16" height="12" x="0" y="0" maskUnits="userSpaceOnUse" style="mask-type:luminance"><rect width="16" height="12" fill="#fff" rx="2"/></mask><g mask="url(#b)"><path fill="#262626" d="M0 0h16v12H0z"/><path fill="#e8283f" fill-rule="evenodd" d="M0 0h16v12z" clip-rule="evenodd"/><path fill="#fff" fill-rule="evenodd" d="m3.81 10-.539.166.158-.566-.158-.566.539.166.539-.166-.158.566.158.566zm0-4.8-.539.166.158-.566-.158-.566.539.166.539-.166-.158.566.158.566zm-1.905 2-.539.166.158-.566-.158-.566.539.166.539-.166-.158.566.158.566zm3.428-.4-.539.166.158-.566-.158-.566.539.166.539-.166-.158.566.158.566z" clip-rule="evenodd"/><path fill="#ffd84e" fill-rule="evenodd" d="M10.7779 5.5593c-.0912-.0574-.1652-.1928-.1652-.301V4.521c0-.1089-.0746-.171-.1874-.1315l-.4333.1517c-.1035.0362-.262.0395-.3748 0l-.4333-.1517c-.1035-.0362-.115-.1112-.0223-.1696l1.0166-.6405c.0912-.0574.1403-.1823.1027-.3008l-.1444-.455c-.0346-.1086.0121-.1706.1249-.1311l.4333.1516c.1035.0362.2308-.0104.2865-.1078l.6099-1.0674c.0548-.0958.124-.0951.1616.0234l.1444.455c.0345.1086.0376.275 0 .3935l-.1444.455c-.0345.1086.0221.1968.1252.1968h.7021c.1037 0 .2312.076.2868.1734l.6099 1.0674c.0548.0957.0108.192-.0881.2127l-.9724.2042c-.1034.0217-.2049.1321-.2247.236l-.1944 1.0209c-.0207.1086-.1099.151-.2027.0926z" clip-rule="evenodd"/></g></g><defs><clipPath id="a"><path fill="#fff" d="M0 0h16v12H0z"/></clipPath></defs></svg>
